X:1
T:ронда моцарта
T:ТУРЕЦКОЕ РОНДО
T:В. А. Моцарт (1756-1791) 
C:Кулаков А.В.
%%score { 1 | 2 }
L:1/8
Q:1/4=116
M:4/4
K:C
V:1 treble nm="Фортепиано" snm="Ф-но"
V:2 bass 
V:1
"^Allegretto"!p! (B/A/^G/A/ c) z (d/c/B/c/ e) z | (f/e/^d/e/) (b/a/^g/a/ b/a/g/a/ c'2) | %2
 .a.c'{ga}.b.a .g.a{ga}.b.a | .g.a{ga}.b.a .g.^f e2 ::!f! .[ce].[df].[eg].[eg] (a/g/f/e/) [Bd]G | %5
!p! .[ce].[df].[eg].[eg] (a/g/f/e/) [Bd]2 |!f! .[Ac].[Bd].[ce].[ce] (f/e/d/c/) [^GB]E | %7
!p! .[Ac].[Bd].[ce].[ce] (f/e/d/c/) [^GB]2 | (B/A/^G/A/ c) z (d/c/B/c/ e) z | %9
 (f/e/^d/e/)"_cresc." (b/a/^g/a/ b/a/g/a/ c'2) | .a.b.c'.b .a.^g.a.e | .f.d c2 (TB3/2A/4B/4 A2) :: %12
[K:A]!f! .[Aa].[Bb] .[cc']2 .[Aa].[Bb].[cc'].[Bb] | .[Aa].[Gg][Ff][Gg] [Aa][Bb][Gg][Ee] | %14
 [Aa][Bb] [cc']2 [Aa][Bb][cc'][Bb] | [Aa][Gg][Ff][Bb] [Gg][Ee] [Aa]2 :: %16
!p! (c'/d'/c'/b/ a/b/a/g/ f/a/g/f/ ^e/f/g/e/ | c/^d/e/c/ f/^e/f/g/ a/g/a/b/ c'/^b/c'/b/ | %18
 c'/d'/c'/b/ a/b/a/g/ f/a/g/f/ e/f/g/e/ | c/^d/e/c/ d/e/f/d/ ^B/c/d/B/ c2) :: %20
!f! (e/d/c/B/) (A/B/c/d/ e/f/g/a/) (a/g/f/e/) | (e/d/c/B/) (A/B/c/d/ e/f/g/a/) (^ab) | %22
 (e/d/c/B/) (A/B/c/d/ e/f/g/a/) (a/g/f/e/) | (e/d/c/B/) (c/e/)(A/c/) (B/d/)(G/B/) A2 | %24
!p! (c'/d'/c'/b/ a/b/a/g/ f/a/g/f/ ^e/f/g/e/ | c/^d/e/c/ f/^e/f/g/ a/g/a/b/ c'/^b/c'/b/ | %26
 c'/^b/c'/^a/!f! d'/c'/d'/c'/ d'/c'/d'/c'/"_dim." d'/c'/=b/=a/ | %27
 g/a/b/g/ a/b/c'/f/ ^e/f/g/e/!p! f2) ::!f!!f! .[Aa].[Bb] .[cc']2 .[Aa].[Bb].[cc'].[Bb] | %29
 .[Aa].[Gg][Ff][Gg] [Aa][Bb][Gg][Ee] | [Aa][Bb] [cc']2 [Aa][Bb][cc'][Bb] | %31
 [Aa][Gg][Ff][Bb] [Gg][Ee] [Aa]2 ::[K:C]!p! (B/A/^G/A/ c) z (d/c/B/c/ e) z | %33
 (f/e/^d/e/) (b/a/^g/a/ b/a/g/a/ c'2) | .a.c'{ga}.b.a .g.a{ga}.b.a | .g.a{ga}.b.a .g.^f e2 :: %36
!f! .[ce].[df].[eg].[eg] (a/g/f/e/) [Bd]G |!p! .[ce].[df].[eg].[eg] (a/g/f/e/) [Bd]2 | %38
!f! .[Ac].[Bd].[ce].[ce] (f/e/d/c/) [^GB]E |!p! .[Ac].[Bd].[ce].[ce] (f/e/d/c/) [^GB]2 | %40
 (B/A/^G/A/ c) z (d/c/B/c/ e) z | (f/e/^d/e/)"_cresc." (b/a/^g/a/ b/a/g/a/ c'2) | %42
 .a.b.c'.b .a.^g.a.e | .f.d c2 TB3/2A/4B/4 A2 ::[K:A]!f! (A/a/B/b/ c/c'/) z (A/a/B/b/ c/c'/B/b/ | %45
 A/a/G/g/ F/f/G/g/ A/a/B/b/ G/g/E/e/) | (A/a/B/b/ c/c'/) z A/(a/B/b/ c/c'/B/b/ |1 %47
 A/a/G/g/ F/f/B/b/ G/g/E/e/) [Aa]2 :|2 (A/a/G/g/ F/f/B/b/ G/g/E/e/) [Aa]2 || %49
!f! [cc']>[cc'] [ceac']4 [ce-a-c'-]2 | [eac']2 (d'/c'/).b/.c'/ (d'/c'/).b/.c'/ [fad']2- | %51
 [fad']2{/d'} [eac']{/d'}[eac']{/d'} [eac']{/d'}[eac'] [egb-]2 | (be') [ceac']4 [ce-a-c'-]2 | %53
 [eac']2 (d'/c'/).b/.c'/ (d'/c'/).b/.c'/ [fad']2- | [fad']2 [eac']4{/c'} [egb]{/c'}[egb] | %55
{/c'} [egb]{/c'}[egb] a2 c'>c' c'2- | c'2 c'4 (d'/c'/).b/.c'/ | %57
 (d'/c'/).b/.c'/ d'4{/d'} c'{/d'}c' |{/d'} c'{/d'}c' (b3 e') [ceac']2- | %59
 [ceac']2 [ce-a-c'-]2 [eac']2 (d'/c'/).b/.c'/ | (d'/c'/).b/.c'/ [fad']2- [fad']2 [eac']2- | %61
 [eac']2{/c'} [egb]{/c'}[egb]{/c'} [egb]{/c'}[egb] [Aa]2- | [Aa][cc'] [Aa]3 [ee'] [Aa]2- | %63
 [Aa].[cc'].[Aa].[cc'] .[Aa].[ee'] .[Aa]2 | [Acea]2 [Acea]2 z4 |] %65
V:2
 z2 A,[CE] [CE][CE]A,[CE] | [CE][CE]A,[CE] A,[CE]A,[CE] | [CE][CE]E,[B,E] [B,E][B,E]E,[B,E] | %3
 [B,E][B,E]E,[B,E] B,,B, E,2 :: z2 C,C E,E G,2 | z2 C,C E,E G,2 | z2 A,,A, C,C E,2 | %7
 z2 A,,A, C,C E,2 | z2 A,[CE] [CE][CE]A,[CE] | [CE][CE]A,[CE] A,[CE]F,[A,^D] | %10
 [A,^D][A,D]E,[A,E] =D,[F,B,]C,[E,A,] | D,[F,B,][E,A,][E,A,] [E,^G,][E,G,] A,,2 :: %12
[K:A] z2 A,A, A,A,A,A, | A,A,D,D, ^D,D,E,E, | E,E,A,A, A,A,A,A, | A,A,D,D, E,E, A,,2 :: %16
 z2 F,[A,C] [A,C][A,C]G,[B,C] | [B,C][B,C]F,[A,C] [A,C][A,C]^E,[G,C] | %18
 [G,C][G,C]F,[A,C] [A,C][A,C]G,[CE] | [CE][CE]G,[^DF] [DF][DF] [CE]2 :: z2 A,[CE] [CE][CE]B,[DE] | %21
 [DE][DE]A,[CE] [CE]EE,[G,D] | [G,D][G,D]A,[CE] [CE][CE]B,[DE] | [DE][DE]A,F, D,E,A,,A, | %24
 z2 F,[A,C] [A,C][A,C]G,[B,C] | [B,C][B,C]F,[A,C] [A,C][A,C]C,[G,C] | %26
 [=G,C][F,C]B,,[F,B,] [F,B,][F,B,]B,,[^G,B,] | [G,B,][G,B,]C,F, C,F, [F,A,]2 :: z2 A,A, A,A,A,A, | %29
 A,A,D,D, ^D,D,E,E, | E,E,A,A, A,A,A,A, | A,A,D,D, E,E, A,,2 ::[K:C] z2 A,[CE] [CE][CE]A,[CE] | %33
 [CE][CE]A,[CE] A,[CE]A,[CE] | [CE][CE]E,[B,E] [B,E][B,E]E,[B,E] | [B,E][B,E]E,[B,E] B,,B, E,2 :: %36
 z2 C,C E,E G,2 | z2 C,C E,E G,2 | z2 A,,A, C,C E,2 | z2 A,,A, C,C E,2 | z2 A,[CE] [CE][CE]A,[CE] | %41
 [CE][CE]A,[CE] A,[CE]F,[A,^D] | [A,^D][A,D]E,[A,E] =D,[F,B,]C,[E,A,] | %43
 D,[F,B,][E,A,][E,A,] [E,^G,][E,G,] [A,,A,]2 ::[K:A] z2 A,A, A,A,A,A, | A,A,D,D, ^D,D,E,E, | %46
 E,E,A,A, A,A,A,A, |1 A,A,D,D, E,E, A,,2 :|2 A,A,D,D, E,E,A,A, || A,A,A,A, A,A,A,A, | %50
 A,A,A,A, A,A,D,D, | D,D,A,A, A,A,E,E, | E,E,A,A, A,A,A,A, | A,A,A,A, A,A,D,D, | %54
 D,D,A,A, A,A,A,A, | A,A, A,/E/C/E/ A,/E/C/E/ A,/E/C/E/ | A,/E/C/E/ A,/E/C/E/ A,/E/C/E/ A,/E/C/E/ | %57
 A,/E/C/E/ A,/F/D/F/ A,/F/D/F/ A,/E/C/E/ | A,/E/C/E/ E,/E/B,/E/ E,/E/B,/E/ A,A, | %59
 A,A,A,A, A,A,A,A, | A,A,D,D, D,D,A,A, | A,A,E,D, E,E,A,A, | A,A,A,A, A,A,A,A, | %63
 A,A,A,A, A,A, A,,2 | [A,,C,E,A,]2 [A,,C,E,A,]2 z4 |] %65

